X: 4178
T: The BUNDLE OF STRAW
%R: reel
B: James Kerr "Merry Melodies" v.4 p.20 #178
Z: 2016 John Chambers <jc:trillian.mit.edu>
M: C|
L: 1/8
K: Em
|:\
GFGA (BE) (3EEE | BEdE (BE) (3EEE |\
GFGA (BA) (3(Bcd) | (3(efg) (3(fe^d) e2e2 ::\
gafg edBd |
dfed Bdef |\
[1 (3(gag) (3(fgf) edBd | (3(efg) (3(fe^d) e2(ef) :|\
[2 (3(gab) (3(agf) (3(gfe) (3(fed) | (3(efg) (3(fe^d) e2e2 |]

%%sep 1 1 500
%%sep 1 1 500

